src/assets/bold/lm-image-caption-2-bold.svg

<svg width="24" height="24" viewBox="0 0 24 24" fill="none" xmlns="http://www.w3.org/2000/svg" fill="currentColor">
<path d="M15.75 17.25C16.1642 17.25 16.5 17.5858 16.5 18C16.5 18.4142 16.1642 18.75 15.75 18.75H3C2.58579 18.75 2.25 18.4142 2.25 18C2.25 17.5858 2.58579 17.25 3 17.25H15.75Z" fill="black"/>
<path d="M15.1504 5.4502C15.8957 5.45038 16.4999 6.05443 16.5 6.7998C16.5 7.54528 15.8958 8.15021 15.1504 8.15039C14.4048 8.15039 13.7998 7.54539 13.7998 6.7998C13.7999 6.05432 14.4049 5.4502 15.1504 5.4502Z" fill="black"/>
<path d="M20.0996 2.25C20.877 2.25 21.75 2.79934 21.75 3.75V14.25C21.75 15.2007 20.877 15.75 20.0996 15.75H3.90039C3.12297 15.75 2.25 15.2007 2.25 14.25V3.75C2.25 2.79934 3.12297 2.25 3.90039 2.25H20.0996ZM7.89258 8.01074L7.84375 8.04297L3.75 12.1367V14.207C3.77401 14.2246 3.82435 14.25 3.90039 14.25H20.0996C20.1756 14.25 20.226 14.2246 20.25 14.207V13.1904L17.8047 10.7432C17.7766 10.7152 17.7379 10.6992 17.6982 10.6992C17.6787 10.6993 17.6594 10.7036 17.6416 10.7109L17.5928 10.7432L14.7021 13.6309C14.4092 13.9231 13.9342 13.9226 13.6416 13.6299L8.05664 8.04297C8.0429 8.0293 8.0257 8.01822 8.00781 8.01074C7.98969 8.00324 7.96981 7.99905 7.95019 7.99902C7.93052 7.99902 7.91076 8.00322 7.89258 8.01074ZM3.90039 3.75C3.82484 3.75 3.7742 3.77441 3.75 3.79199V10.0156L6.7832 6.98242C6.9363 6.82933 7.11835 6.70791 7.31836 6.625C7.5186 6.54202 7.73344 6.49902 7.95019 6.49902C8.16693 6.49905 8.38181 6.54201 8.58203 6.625C8.78204 6.70795 8.96312 6.83026 9.11621 6.9834L9.11719 6.98242L14.1729 12.0391L16.5322 9.68262L16.6533 9.57324C16.9468 9.33293 17.3156 9.19932 17.6982 9.19922C18.1356 9.19922 18.5558 9.37349 18.8652 9.68262L20.25 11.0693V3.79199C20.2258 3.77441 20.1752 3.75 20.0996 3.75H3.90039Z" fill="black"/>
<path d="M9.5 20.2501C9.91421 20.2501 10.25 20.5859 10.25 21.0001C10.25 21.4143 9.91421 21.7501 9.5 21.7501H3C2.58579 21.7501 2.25 21.4143 2.25 21.0001C2.25 20.5859 2.58579 20.2501 3 20.2501H9.5Z" fill="black"/>
</svg>

<svg xmlns="http://www.w3.org/2000/svg" width="24" height="24" fill="currentColor" viewBox="0 0 24 24">
  <path d="M15.75 17.25a.75.75 0 0 1 0 1.5H3a.75.75 0 0 1 0-1.5h12.75Zm-.6-11.8a1.35 1.35 0 1 1 0 2.7 1.35 1.35 0 0 1 0-2.7Z"/>
  <path d="M20.1 2.25c.777 0 1.65.55 1.65 1.5v10.5c0 .95-.873 1.5-1.65 1.5H3.9c-.777 0-1.65-.55-1.65-1.5V3.75c0-.95.873-1.5 1.65-1.5h16.2ZM7.893 8.01l-.05.033-4.093 4.094v2.07a.255.255 0 0 0 .15.043h16.2a.255.255 0 0 0 .15-.043V13.19l-2.445-2.447a.152.152 0 0 0-.107-.044.152.152 0 0 0-.056.012l-.05.032-2.89 2.888a.75.75 0 0 1-1.06-.001L8.057 8.043a.155.155 0 0 0-.107-.044c-.02 0-.04.004-.057.012ZM3.9 3.75a.258.258 0 0 0-.15.042v6.224l3.033-3.034a1.651 1.651 0 0 1 2.333.001h.001l5.056 5.056 2.36-2.356.12-.11a1.65 1.65 0 0 1 2.212.11l1.385 1.386V3.792a.258.258 0 0 0-.15-.042H3.9Zm5.6 16.5a.75.75 0 0 1 0 1.5H3a.75.75 0 0 1 0-1.5h6.5Z"/>
</svg>
